X:1
T:Ach Gott, wem soll ich's klagen
T:Max Bruch
T:Ach Gott, wem soll ich's klagen
T:CPDL - Creative Commons Attribution Non Commercial 3.0
T:CPDL - Creative Commons Attribution Non Commercial 3.0
C:Max Bruch
Z:CPDL - Creative Commons Attribution Non Commercial 3.0
%%score [ 1 2 3 4 ]
L:1/8
Q:1/4=66
M:4/4
K:Ab
V:1 treble nm="Sopran"
V:2 treble nm="Alt"
V:3 treble-8 nm="Tenor"
V:4 bass nm="Bass"
V:1
!p!"^Langsam" E2 | A2 A2 c2 BA | !>!B2 B2 z2"^cresc." (GA) | B2 BB Bd cB | c4 z2 (cB) | %5
w: 1.~Ach|Gott! wem soll ich's _|kla- gen, und wo|sollt' ich mich wen- * den _|hin? Mein _|
 A2!>(! B2 c-cBA!>)! |!p! B2 B2 z4 |"^cresc." _d4 e4 | c6 c2 |!>(! (c2 B2) B4!>)! |!p! e6 z2 | %11
w: Herz, das möch- * te ver-|za- gen,|weil ich|so ver-|las- * sen|bin,|
!<(! d4 e4!<)! |!>(! c6 c2!>)! |!p! (!>!c2[Q:1/4=60]"^rit.   _     _" B2) B4 | !fermata!A6 |] %15
w: weil ich|so ver-|las- * sen|bin.|
V:2
!p! E2 | E2 C2 =DE F2 | !>!F2 G2 z2"^cresc." E-E | F2 FF B2 G2 | G4 z2 =E-E | %5
w: 2.~Mein|El- tern sind _ ge-|stor- ben, die Ge-|schwis- ter sind al- le|tot, und die|
 F2!>(! GB (BA)GA!>)! |!p! F2 G2 z4 |"^cresc." A4 (B3 E) | (E2 =E2) (F2 _G2) |!>(! F6 F2!>)! | %10
w: Freun- de _ ha- ben mich ver-|las- sen;|in der _|Welt _ find _|ich kein|
!p! (=G4 A2) z2 |!<(! B6 B2!<)! |!>(! (B2 A2) G4!>)! |!p! (!>!F3 A) (A2 G2) | !fermata!E6 |] %15
w: Trost, _|in der|Welt _ find|ich _ kein _|Trost!|
V:3
!p! ed | c2 e2 AG FB | !>!A2 G2 z2"^cresc." e-e | _d2 d=d e2 e_d | (c2 G2) z2 c-c | %5
w: 3.~Ach _|Gott, tu für _ mich _|sor- gen und _|nimm mich bald hin zu _|dir! _ Va- ter,|
 c2!>(! d2 e-eee!>)! |!p! e=d e4 z2 |"^cresc." _d4 B4 | (c2 B2) (A2 =A2) | %9
w: Mut- ter hab _ ich ver-|lo- * ren,|schließ mir|auf _ die _|
!>(! (=A2 B2) (d2 f2)!>)! |!p! e6 z2 |!<(! f4 (e2 g2)!<)! |!>(! f6 e2!>)! |!p! (!>!d2 f2) (e3 d) | %14
w: Him- * mels- *|tür,|schließ mir _|auf die|Him- * mels- *|
 !fermata!c6 |] %15
w: tür!|
V:4
!p! E,2 | A,,2 A,G, F,E, =D,2 | !>!=D,2 E,2 z2"^cresc." (_DC) | B,CB,A, G,2 E,2 | =E,4 z2 C,-C, | %5
 F,2!>(! _E,2 A,-A,B,C!>)! |!p! B,2 E,4 z2 |"^cresc." F,4 G,4 | (A,2 G,2) (F,2 E,2) | %9
!>(! D,6 D,2!>)! |!p! (D4 C2) z2 |!<(! (B,2 A,2) (G,2 E,2)!<)! |!>(! F,4 C,4!>)! |!p! !>!D,4 E,4 | %14
"^10. 8. 1914" !fermata!A,,6 |] %15

